X: 31571
T: COTILLION No. 40. YANKEE HILL'S SETT tune 4
C:
%R: jig
B: Elias Howe "The Musician's Companion" Part 3 1844 p.157 #1
S: http://imslp.org/wiki/The_Musician's_Companion_(Howe,_Elias)
Z: 2015 John Chambers <jc:trillian.mit.edu>
M: 6/8
L: 1/8
K: A
% - - - - - - - - - - - - - - - - - - - - - - - - -
E/G/ |\
A3  a3  | ece dBG | EFG ABc | dBe c2B |\
AEA cAc | eca ecA | Bfe dcB | B3  A2 H|]
B |\
BGB eBe | geb af^d | Bf^d Baf | ^dBA A2G |\
GeB Gge | Bbg agf | gc'b agf | eBg "^D.C."e2 |]
K:=f=c=g
e |\
a^ga c'bc' | e'd'e' c'ba | ^g^fg bab | ^g^fg eBF |\
a^ga c'bc' | e'd'e' c'ba | ^gab e^f^g | b3 "^D.C."a2 |]
% - - - - - - - - - - Dance description - - - - - - - - - -
%%begintext align
%% 4 ladies forward and back,
%% gentlemen the same,
%% all balance to partners,
%% all promenade, &c.
%%endtext
% - - - - - - - - - - - - - - - - - - - - - - - - -
%%sep 1 1 300
